human-greeting-proximity.svg

<svg fill="currentColor" viewBox="0 0 24 24"><path d="M11 14H9a9 9 0 0 1 9-9v2c-3.87 0-7 3.13-7 7m7-3V9c-2.76 0-5 2.24-5 5h2c0-1.66 1.34-3 3-3M7 4c0-1.11-.89-2-2-2s-2 .89-2 2 .89 2 2 2 2-.89 2-2m4.45.5h-2A2.98 2.98 0 0 1 6.5 7h-3C2.67 7 2 7.67 2 8.5V11h6V8.74a4.98 4.98 0 0 0 3.45-4.24M19 17c1.11 0 2-.89 2-2s-.89-2-2-2-2 .89-2 2 .89 2 2 2m1.5 1h-3c-1.5 0-2.71-1.08-2.95-2.5h-2c.2 2 1.59 3.65 3.45 4.24V22h6v-2.5c0-.83-.67-1.5-1.5-1.5"/></svg>

<svg  viewBox="0 0 24 24" fill="currentColor"><path  d="M11 14H9C9 9.03 13.03 5 18 5V7C14.13 7 11 10.13 11 14M18 11V9C15.24 9 13 11.24 13 14H15C15 12.34 16.34 11 18 11M7 4C7 2.89 6.11 2 5 2S3 2.89 3 4 3.89 6 5 6 7 5.11 7 4M11.45 4.5H9.45C9.21 5.92 8 7 6.5 7H3.5C2.67 7 2 7.67 2 8.5V11H8V8.74C9.86 8.15 11.25 6.5 11.45 4.5M19 17C20.11 17 21 16.11 21 15S20.11 13 19 13 17 13.89 17 15 17.89 17 19 17M20.5 18H17.5C16 18 14.79 16.92 14.55 15.5H12.55C12.75 17.5 14.14 19.15 16 19.74V22H22V19.5C22 18.67 21.33 18 20.5 18Z"/></svg>
